X:307
T:Rediggan's
Z: id:dc-reel-284
M:C
L:1/8
K:E Dorian
B2AF B2AF|EDEF EDB,D|B2AF B2AF|DFAF FEE2|!
B2AF B2AF|EDEF EDB,A,|B,EE2 DEFA|BFAF FEE2:|!
eBB2 egfe|fdd2 Adfd|eBB2 egfe|dBAF FEE2|!
eBB2 egfe|fdd2 Adfd|BABd egfe|dBAF FEE2:|!

